packages/core/src/svgs/nebo.svg

<svg width="24" height="24" viewBox="0 0 24 24" fill="none" xmlns="http://www.w3.org/2000/svg">
<g clip-path="url(#clip0_31_14646)">
<path d="M0 0H24V24H0V0Z" fill="url(#paint0_linear_31_14646)"/>
<path d="M18.4288 5.57129V11.8799C18.4202 13.727 17.8074 15.5484 16.4445 16.9156C15.8302 17.5315 15.1004 18.0201 14.297 18.3536C13.4936 18.687 12.6322 18.8586 11.7624 18.8586C10.8925 18.8586 10.0311 18.687 9.2277 18.3536C8.42426 18.0201 7.6945 17.5315 7.08021 16.9156C6.21039 16.0411 5.60119 14.9418 5.32085 13.7407C5.04051 12.5396 5.10008 11.2842 5.49291 10.1151C5.88574 8.94592 6.59631 7.90923 7.54502 7.1211C8.49374 6.33297 9.64314 5.82452 10.8645 5.65272C11.2588 5.60129 11.6874 5.57129 12.0388 5.57129H18.4288ZM18.0002 5.99986H12.0388C11.6745 5.98272 11.2931 6.03843 10.9245 6.08557C9.78439 6.24663 8.71158 6.72169 7.82605 7.45764C6.94052 8.19358 6.2772 9.16137 5.91029 10.2528C5.54338 11.3442 5.48734 12.5161 5.74845 13.6375C6.00956 14.759 6.57751 15.7856 7.38878 16.6027C7.96213 17.1781 8.64341 17.6346 9.39356 17.946C10.1437 18.2575 10.948 18.4179 11.7602 18.4179C12.5725 18.4179 13.3767 18.2575 14.1269 17.946C14.877 17.6346 15.5583 17.1781 16.1316 16.6027C17.4302 15.3041 17.9916 13.6284 18.0002 11.8799V5.99986Z" fill="white"/>
<path d="M17.0699 13.9286C16.7821 14.8048 16.2804 15.5953 15.6102 16.2288C14.94 16.8622 14.1224 17.3185 13.2314 17.5563C12.3404 17.7942 11.4042 17.8061 10.5074 17.591C9.61066 17.3759 8.78171 16.9405 8.09558 16.3243L9.7113 14.7043C11.597 16.3329 14.7599 15.99 17.0699 13.9286ZM10.0713 6.94291C8.00558 9.23576 7.66701 12.3858 9.27844 14.2715L7.65844 15.8915C7.04527 15.205 6.61291 14.3764 6.40047 13.4808C6.18803 12.5852 6.20221 11.6508 6.44174 10.762C6.68126 9.87324 7.13858 9.05821 7.77231 8.39064C8.40604 7.72307 9.19619 7.22402 10.0713 6.93862V6.94291ZM17.3442 9.75862C17.3484 9.75433 17.3442 9.7629 17.3442 9.75862V12.72C17.2284 12.8615 17.057 13.0629 16.9199 13.1915C14.8284 15.2872 11.8627 15.69 10.1527 14.2586L11.9827 12.4286C12.9899 13.0715 14.8713 12.4672 16.3756 10.9629L16.5084 10.83C16.6542 10.6758 16.7956 10.5129 16.9199 10.3543L16.9884 10.2686H16.9927L17.0056 10.2472L17.0313 10.2172L17.0442 10.2C17.1556 10.0543 17.2584 9.90005 17.3484 9.75433L17.3442 9.75862ZM14.1984 6.66862C14.0356 6.77148 13.8727 6.88719 13.7099 7.01148L13.6327 7.07576C13.4699 7.20433 13.3113 7.34148 13.157 7.48719L13.0199 7.61576C11.5199 9.11576 10.9156 10.9929 11.5499 12.0043L9.72416 13.8258C8.30987 12.1158 8.71701 9.16719 10.8042 7.08005C10.9327 6.94719 11.2842 6.66005 11.2842 6.66005L14.1984 6.66862ZM17.3613 6.65576V8.22005C17.285 8.48642 17.1831 8.74477 17.057 8.99148C16.8919 9.31801 16.6937 9.62677 16.4656 9.9129C16.337 10.0758 16.2042 10.2386 16.0584 10.3929L15.9256 10.5258C15.2912 11.19 14.4997 11.6838 13.6242 11.9615C12.9642 12.1458 12.4584 12.0686 12.1884 11.7986C11.9227 11.5329 11.8456 11.0272 12.0299 10.3629C12.3079 9.48752 12.8016 8.6961 13.4656 8.06148L13.5984 7.9329C14.016 7.53544 14.4878 7.19923 14.9999 6.93433C15.2227 6.8229 15.4456 6.72862 15.6599 6.66005H15.6684L17.3699 6.65576H17.3613Z" fill="url(#paint1_linear_31_14646)"/>
</g>
<defs>
<linearGradient id="paint0_linear_31_14646" x1="4.46571" y1="4.16143" x2="29.2071" y2="32.58" gradientUnits="userSpaceOnUse">
<stop stop-color="#1A1E21"/>
<stop offset="1" stop-color="#06060A"/>
</linearGradient>
<linearGradient id="paint1_linear_31_14646" x1="16.8127" y1="7.05433" x2="7.7013" y2="16.4486" gradientUnits="userSpaceOnUse">
<stop stop-color="#49FDFF"/>
<stop offset="1" stop-color="#00AFAD"/>
</linearGradient>
<clipPath id="clip0_31_14646">
<rect width="24" height="24" fill="white"/>
</clipPath>
</defs>
</svg>

<svg xmlns="http://www.w3.org/2000/svg" width="24" height="24" fill="none" viewBox="0 0 24 24"><g clip-path="url(#a)"><path fill="url(#b)" d="M0 0h24v24H0z"/><path fill="#fff" d="M18.429 5.571v6.309c-.009 1.847-.622 3.668-1.984 5.036a6.615 6.615 0 0 1-9.365 0 6.643 6.643 0 0 1 3.784-11.263 10 10 0 0 1 1.175-.082zM18 6H12.04c-.364-.017-.746.038-1.114.086a6.206 6.206 0 0 0-3.536 10.517 6.17 6.17 0 0 0 8.743 0c1.298-1.299 1.86-2.975 1.868-4.723z"/><path fill="url(#c)" d="M17.07 13.929a5.547 5.547 0 0 1-8.974 2.395l1.615-1.62c1.886 1.629 5.049 1.286 7.359-.775M10.07 6.943c-2.065 2.293-2.404 5.443-.793 7.329l-1.62 1.62a5.537 5.537 0 0 1 2.413-8.953zm7.273 2.816c.004-.005 0 .004 0 0v2.961a6 6 0 0 1-.424.471c-2.092 2.096-5.057 2.499-6.767 1.068l1.83-1.83c1.007.643 2.888.038 4.393-1.466l.132-.133c.146-.154.288-.317.412-.476l.068-.085h.005l.013-.022.025-.03.013-.017c.112-.146.214-.3.304-.446zm-3.146-3.09a7 7 0 0 0-.488.342l-.077.065a7 7 0 0 0-.476.411l-.137.129c-1.5 1.5-2.104 3.377-1.47 4.388l-1.826 1.822c-1.414-1.71-1.007-4.659 1.08-6.746.129-.133.48-.42.48-.42zm3.163-.013V8.22a4.3 4.3 0 0 1-.304.771 5.4 5.4 0 0 1-.591.922 7 7 0 0 1-.408.48l-.132.133a5.5 5.5 0 0 1-2.302 1.435c-.66.185-1.166.108-1.436-.162-.265-.266-.342-.772-.158-1.436a5.5 5.5 0 0 1 1.436-2.302l.132-.128c.418-.398.89-.734 1.402-.999.223-.111.446-.205.66-.274h.008l1.702-.004z"/></g><defs><linearGradient id="b" x1="4.466" x2="29.207" y1="4.161" y2="32.58" gradientUnits="userSpaceOnUse"><stop stop-color="#1A1E21"/><stop offset="1" stop-color="#06060A"/></linearGradient><linearGradient id="c" x1="16.813" x2="7.701" y1="7.054" y2="16.449" gradientUnits="userSpaceOnUse"><stop stop-color="#49FDFF"/><stop offset="1" stop-color="#00AFAD"/></linearGradient><clipPath id="a"><path fill="#fff" d="M0 0h24v24H0z"/></clipPath></defs></svg>
